icons/laptop.svg

<svg width="24" height="24" viewBox="0 0 24 24" fill="none" xmlns="http://www.w3.org/2000/svg">
<path fill-rule="evenodd" clip-rule="evenodd" d="M4.34998 6.84995C4.34998 5.66417 5.3142 4.69995 6.49998 4.69995H17.5C18.6858 4.69995 19.65 5.66416 19.65 6.84995V16.2999H4.34998V6.84995ZM2.84998 16.4008V6.84995C2.84998 4.83574 4.48577 3.19995 6.49998 3.19995H17.5C19.5142 3.19995 21.15 4.83574 21.15 6.84995V16.4008C22.0619 16.6892 22.75 17.5603 22.75 18.5499C22.75 19.7641 21.7142 20.7999 20.5 20.7999H3.5C2.28579 20.7999 1.25 19.7641 1.25 18.5499C1.25 17.5603 1.93805 16.6892 2.84998 16.4008ZM3.49388 17.8C3.11037 17.8038 2.75 18.1662 2.75 18.5499C2.75 18.9357 3.11421 19.2999 3.5 19.2999H20.5C20.8858 19.2999 21.25 18.9357 21.25 18.5499C21.25 18.1662 20.8896 17.8038 20.5061 17.8H3.49388Z" fill="black"/>
</svg>

<svg xmlns="http://www.w3.org/2000/svg" fill="none" viewBox="0 0 24 24">
  <path fill="#000" fill-rule="evenodd" d="M4.35 6.85c0-1.186.964-2.15 2.15-2.15h11c1.186 0 2.15.964 2.15 2.15v9.45H4.35V6.85Zm-1.5 9.55V6.85A3.652 3.652 0 0 1 6.5 3.2h11a3.652 3.652 0 0 1 3.65 3.65v9.55c.912.29 1.6 1.16 1.6 2.15 0 1.214-1.036 2.25-2.25 2.25h-17c-1.214 0-2.25-1.036-2.25-2.25 0-.99.688-1.86 1.6-2.15Zm.644 1.4c-.384.004-.744.366-.744.75 0 .386.364.75.75.75h17c.386 0 .75-.364.75-.75 0-.384-.36-.746-.744-.75H3.494Z" clip-rule="evenodd"/>
</svg>
